X:482
T:Knockabout Polka
M:4/4
K:D
L:1/8
D4 D3 E | F2 A2 A2 Bc | d2 F2 FEDE | F2 E2 E4 | 
D4 D3 E | F2 A2 A2 Bc | d2 F2 E2 FE | D4 D4 :|| 
A2 d2 d4 | c2 B2 B2 cB | A2 F2 FEDE | F2 E2 E4 | 
A2 d2 d4 | c2 B2 B2 cB | A2 F2 E2 FE | D4 D4 :|| 

